X:1
T:Superfly
R:reel
C:Kevin O'Neill
Z:id:hn-reel-875
M:C|
L:1/8
K:Bm
|: Bf~f2 gfeg | ~f3g fedf | ~e3f edce | decA BAFA |
Bf~f2 gfeg | ~f3g fedf | ~e3f edce | decA B2BA :|
|: Bcde f2Bc | defB g2Bc | defd a3f | gfeg fedc |
Bcde f2Bc | defB g2Bc | defd ~a3f | gfeg ~f3z :|

